!!!OTL: "Gertrud" ES IST KEIN AEPFELCHEN SO ROTH
!!!ARE: Europa, Mitteleuropa, Deutschland, Westfalen
!!!SCT: Z1115
!!!YEM: Copyright 1995, estate of Helmut Schaffrath.
**kern
*ICvox
*Ivox
*M2/4
*k[b-e-a-d-]
*A-:
{16cc
16b-
=1
8a-
16a-
16g
16a-
16b-
16cc
16ee-
=2
8b-
16b-
16a-
8b-}
{16cc
16b-
=3
16b-
16a-
16a-
16g
16a-
16b-
16cc
16dd-
=4
4b-
8r}
{16b-
16cc
=5
8dd-
8dd-
8dd-
16cc
16b-
=6
8cc
16ee-
16cc
8a-}
{8a-
=7
16b-
16dd-
16cc
16b-
8cc
8b-
=8
4a-
8r}
==
!!!AGN: Romanze, Ballade, Maria, geistlich
!!!ONB: ESAC (Essen Associative Code) Database: ZUCCAL
!!!AMT: simple duple
!!!AIN: vox
!!!EED: Helmut Schaffrath
!!!EEV: 1.0
*-
